X: 39264
T: Tailor's Choice, The
R: reel
M: 4/4
K: Gmajor
d4 BAGE|DGBG AGEG|d2 dB BAGB|A/B/A BG AGEG|
d2 dB BAGE|DGBG AGEG|d2 dA BAGB|A2 BG AGEG||
d2 BG dG ~G2|d2 BG AGEG|dG ~G2 dGBG|AGBG AGEB|
dG ~G2 d2 BG|dGBG AGED|~G2 B/c/d edge|d2 BG AEGE||

